!!!COM: Bach, Johann Sebastian
!!!OTL: 9. Ermuntre dich, mein schwacher Geist
!!!ONM: No. 9
!!!OCL: Erk
!!!SCA: BWV 248.12
!!!YOE: Riemenschneider, Albert
!!!OPR: 371 Harmonized Chorales and 69 Chorale Melodies with Figured Bass
!!!OPT: Bach Chorale Harmonizations
!!!ONB: From the "Christmas Oratorio", Part II, No. 3
**harm	**root	**kern	**kern	**kern	**kern
!	!	!bass	!tenor	!alto	!sprno
*Iorgan	*Iorgan	*Iorgan	*Iorgan	*Iorgan	*Iorgan
*>[A,A,B]	*>[A,A,B]	*>[A,A,B]	*>[A,A,B]	*>[A,A,B]	*>[A,A,B]
*>norep[A,B]	*>norep[A,B]	*>norep[A,B]	*>norep[A,B]	*>norep[A,B]	*>norep[A,B]
*>A	*>A	*>A	*>A	*>A	*>A
*k[f#c#]	*k[f#c#]	*k[f#c#]	*k[f#c#]	*k[f#c#]	*k[f#c#]
*D:	*D:	*D:	*D:	*D:	*D:
*met(C)	*met(C)	*met(C)	*met(C)	*met(C)	*met(C)
*M4/4	*M4/4	*M4/4	*M4/4	*M4/4	*M4/4
*MM60	*MM60	*MM60	*MM60	*MM60	*MM60
I	4GG	8D	4F#	4A	4d
.	.	8C#	.	.	.
=1	=1	=1	=1	=1	=1
vi	4EE	4BB	8F#	4B	4d
.	.	.	[8G	.	.
V7	4DD	4AA	8G]	4c#	4e
.	.	.	8A	.	.
I	8GG	4D	8F#	8A	8f#
V7d/V	8AA	.	8E	8B	8g#
Vb	4DD	8C#	4E	4c#	4a
.	.	8D	.	.	.
=2	=2	=2	=2	=2	=2
Vc	4DD	4E	4E	8B	4a
.	.	.	.	8c#	.
V7/V	4AA	4EE	4E	4d	4g#
V;	4DD;	4AA;	4E;	4c#;	4a;
Vb/vi	4BB	4AA#	8F#	4c#	4f#
.	.	.	8E	.	.
=3	=3	=3	=3	=3	=3
IVb	8CC	8BB	8D	4B	4g
viio7	8FF#	8C#	8E	.	.
I	8GG	8D	8F#	8A	4f#
IV7	8CC	8GG	8G	8B	.
V7d	4DD	8G	4A	4c#	4e
.	.	8F#	.	.	.
I	4GG	8E	4A	[4d	4f#
.	.	8D	.	.	.
=4	=4	=4	=4	=4	=4
V	2DD	4A	4.A	4d]	2e
.	.	4AA	.	4c#	.
.	.	.	8G	.	.
I;	4GG;	4D;	4F#;	4A;	4d;
=:|!	=:|!	=:|!	=:|!	=:|!	=:|!
*>B	*>B	*>B	*>B	*>B	*>B
V	4DD	4AA	8A	8c#	4e
.	.	.	8B	8d	.
=5	=5	=5	=5	=5	=5
V	8DD	8A	8c#	4.e	4e
iib	8AA	8G	8B	.	.
viiob/ii	4GG#	4F#	4A	.	4f#
.	.	.	.	8d#	.
ii	4AA	4E	4B	8e	4g
.	.	.	.	8d#	.
viioD7/vi	4DD#	4AA#	4c#	4e	4g
=6	=6	=6	=6	=6	=6
!!linebreak: 2
vi	4EE	4BB	4F#	4e	8f#
.	.	.	.	.	8e
V/ii	4EE	4BB	8B	4d#	4f#
.	.	.	8A	.	.
ii;	4AA;	4EE;	4G;	4B;	4e;
vi	8EE	8BB	8D	8B	4f#
V7b/vi	8BB	8C#	8E	8A#	.
=7	=7	=7	=7	=7	=7
vib	4EE	4D	8F#	4B	4f#
.	.	.	8G	.	.
V7b/ii	4EE	4D#	8A	4B	4f#
.	.	.	8B	.	.
ii	4AA	4E	4G	8B	8g
.	.	.	.	8c#	8a
viioD7/iii	4AA#	4E#	4G#	8d	4b
.	.	.	.	8c#	.
=8	=8	=8	=8	=8	=8
iii	4BB	4F#	4F#	8c#	4b
.	.	.	.	8d	.
V7/vi	4BB	4FF#	4F#	4e	4a#
vi;	4EE;	4BB;	4F#;	4d;	4b;
V	4DD	8A	4A	4e	4cc#
.	.	8G	.	.	.
=9	=9	=9	=9	=9	=9
Ib	4GG	8F#	4A	8d	4dd
.	.	8E	.	8e	.
I	4GG	8D	4d	[4f#	4f#
.	.	8C#	.	.	.
IV7b	8CC	8BB	8D	8f#]	4g
viio7	8FF#	8C#	8E	[8e	.
vib	4EE	8D	4F#	8e]	4f#
.	.	8BB	.	8d	.
=10	=10	=10	=10	=10	=10
V7b/V	2AA	8GG#	8B	2d	2e
.	.	8FF#	8A	.	.
.	.	8GG#	8B	.	.
.	.	8EE	8G#	.	.
V;	4DD;	4AA;	4A;	4c#;	4e;
Ib	4GG	4FF#	[4A	8d	4a
.	.	.	.	8c#	.
=11	=11	=11	=11	=11	=11
IV	4CC	4GG	8A]	4B	4b
.	.	.	8G	.	.
V7	4DD	4AA	8G	4c#	4a
.	.	.	8F#	.	.
IV7b	8CC	8BB	8F#	8d	4g
viio	8FF#	8C#	8E	8e	.
I	4GG	4D	4D	4A	8f#
.	.	.	.	.	8g
=12	=12	=12	=12	=12	=12
ii7b	4AA	4GG	8D	4B	2e
.	.	.	16C#	.	.
.	.	.	16BB	.	.
V	4DD	4AA	4C#	4A	.
I;	4GG;	4DD;	4F#;	4A;	4d;
==	==	==	==	==	==
*-	*-	*-	*-	*-	*-
!!!CDT: 1685/3//-1750/7/28
!!!OCY: Deutschland
!!!AGN: chorale
!!!AST: Baroque
!!!AIN: vox
!!!YOY: 1941
!!!PPP: New York; London
!!!PPR: G. Schirmer
!!!ENC: David Huron
!!!EED: David Huron
!!!YEN: United States of America
!!!YER: 1992
!!!YEC: Copyright 1992 David Huron
!!!YEM: Rights to all derivative electronic formats reserved.
!!!YER: March 20, 1996
!!!AMT: simple quadruple
!!!EEV: 1.1
!!chor2scor: -l 2 -s 0.6 -o %b.pmx
